build/img/daichi.svg

<svg width="91" height="40" viewBox="0 0 91 40" fill="none" xmlns="http://www.w3.org/2000/svg">
<path d="M57.5427 17.2955C56.2313 17.6999 55.3837 18.2443 54.3601 19.2708C53.3206 20.344 52.7128 21.4949 52.377 22.9881C51.7053 26.0676 52.5369 29.0384 54.6 30.967C56.3432 32.6001 57.7826 33.0823 60.5974 32.9889C62.2766 32.9267 62.5645 32.8801 63.5401 32.4446C64.7556 31.8846 66.1949 30.6404 66.8027 29.6294C67.2025 28.9761 67.8102 27.2964 67.8102 26.8609C67.8102 26.6898 67.4584 26.6431 66.099 26.6431H64.3717L64.0678 27.3741C63.3642 29.0384 62.0847 29.816 60.0536 29.816C58.6302 29.816 58.0385 29.5983 57.1269 28.7584C56.3912 28.0896 56.0074 27.3275 55.7835 26.0365C55.3517 23.6102 56.3113 21.4483 58.2144 20.484C58.9341 20.1107 61.0772 20.0951 61.9088 20.4528C62.8204 20.8417 63.5881 21.6038 63.9879 22.5215L64.3717 23.3769H66.099C66.1978 23.3769 66.2914 23.3771 66.38 23.3773C67.2171 23.3791 67.6084 23.3799 67.7342 23.2026C67.8446 23.047 67.7506 22.7543 67.5741 22.2046C67.5527 22.1378 67.53 22.0672 67.5063 21.9926C67.0905 20.7017 66.5468 19.8618 65.5392 18.913C63.9879 17.4977 62.5645 17 60.0536 17.0155C58.9661 17.0155 58.1664 17.1088 57.5427 17.2955Z" fill="white"/>
<path fill-rule="evenodd" clip-rule="evenodd" d="M2.59086 17.4822C0.847627 18.322 0 19.7063 0 21.7438C0 23.2058 0.399824 24.2324 1.34341 25.1345C2.23902 26.021 3.10264 26.3787 4.49403 26.4565C6.23726 26.5498 7.18084 26.2232 8.33234 25.1034C9.37188 24.0924 9.75571 23.1747 9.75571 21.7438C9.75571 20.4373 9.38787 19.4886 8.50826 18.5398C7.46872 17.4044 6.50914 17 4.86186 17C3.74236 17 3.43849 17.0622 2.59086 17.4822ZM6.28524 20.5773C6.78102 21.1217 6.86099 21.8838 6.47715 22.5992C6.1413 23.2369 5.62953 23.5325 4.86186 23.5325C3.56643 23.5325 2.62285 22.2571 3.08664 21.1683C3.69438 19.7841 5.26169 19.4886 6.28524 20.5773Z" fill="white"/>
<path fill-rule="evenodd" clip-rule="evenodd" d="M12.6344 32.8956V17.1244L16.6807 17.1866C20.3271 17.2488 20.8068 17.2955 21.6705 17.6066C25.013 18.7886 27.0761 21.6038 27.0761 25.01C27.0761 28.4629 24.997 31.2625 21.5905 32.4135C20.6469 32.7401 20.1991 32.7712 16.6007 32.8334L12.6344 32.8956ZM23.3497 23.2991C22.8699 22.0393 21.6385 20.8572 20.455 20.5151C19.9112 20.3595 18.9836 20.2662 17.8801 20.2662H16.1529V29.7849L18.2 29.7227C20.0232 29.6761 20.3111 29.6294 21.0467 29.2561C23.2058 28.1674 24.2133 25.5544 23.3497 23.2991Z" fill="white"/>
<path fill-rule="evenodd" clip-rule="evenodd" d="M32.9615 17.4977C32.2738 19.3641 27.6679 32.5535 27.6679 32.6935C27.6679 32.8179 28.1477 32.8645 29.4591 32.8334L31.2343 32.7868L31.7941 31.1848L32.3378 29.5983H38.9589L40.0464 32.8645H41.8536C42.8452 32.8645 43.6608 32.8334 43.6608 32.8023C43.6608 32.7246 38.4791 17.8554 38.3032 17.4199C38.2072 17.1866 37.9194 17.1555 35.6484 17.1555C33.1535 17.1555 33.0895 17.1555 32.9615 17.4977ZM36.9118 23.4858L38.0313 26.7987H35.6324C33.7772 26.7987 33.2494 26.752 33.3134 26.5965L34.4809 23.1903C35.0886 21.4172 35.6164 20.0174 35.6803 20.0796C35.7443 20.1418 36.2881 21.6816 36.9118 23.4858Z" fill="white"/>
<path d="M46.0597 32.8645V17.1555H49.4183V32.8645H46.0597Z" fill="white"/>
<path d="M70.3691 32.8645H73.8875V26.3321H80.7645V32.8645H84.283V17.1555H80.7645V23.5325H73.8875V17.1555H70.3691V32.8645Z" fill="white"/>
<path d="M87.6415 32.8645V17.1555H91V32.8645H87.6415Z" fill="white"/>
</svg>

<svg width="91" height="40" viewBox="0 0 91 40" fill="none" xmlns="http://www.w3.org/2000/svg"><path d="M57.543 17.296c-1.312.404-2.16.948-3.183 1.975-1.04 1.073-1.647 2.224-1.983 3.717-.672 3.08.16 6.05 2.223 7.979 1.743 1.633 3.183 2.115 5.997 2.022 1.68-.062 1.968-.109 2.943-.544 1.216-.56 2.655-1.805 3.263-2.816.4-.653 1.007-2.333 1.007-2.768 0-.171-.352-.218-1.711-.218h-1.727l-.304.731c-.704 1.664-1.983 2.442-4.014 2.442-1.424 0-2.016-.218-2.927-1.058-.736-.668-1.12-1.43-1.344-2.721-.431-2.427.528-4.589 2.431-5.553.72-.373 2.863-.389 3.695-.031a4.035 4.035 0 012.079 2.069l.384.855h2.008c.837.002 1.228.003 1.354-.174.11-.156.017-.449-.16-.998l-.068-.212c-.415-1.291-.96-2.131-1.967-3.08-1.551-1.415-2.974-1.913-5.485-1.898-1.088 0-1.888.094-2.511.28z" fill="#fff"/><path fill-rule="evenodd" clip-rule="evenodd" d="M2.59 17.482C.849 18.322 0 19.706 0 21.744c0 1.462.4 2.488 1.343 3.39.896.887 1.76 1.245 3.151 1.322 1.743.094 2.687-.233 3.838-1.353 1.04-1.01 1.424-1.928 1.424-3.36 0-1.306-.368-2.254-1.248-3.203C7.468 17.404 6.51 17 4.862 17c-1.12 0-1.424.062-2.271.482zm3.695 3.095c.496.545.576 1.307.192 2.022-.336.638-.847.933-1.615.933-1.296 0-2.24-1.275-1.775-2.364.607-1.384 2.175-1.68 3.198-.59zm6.349 12.319V17.124l4.047.063c3.646.062 4.126.108 4.99.42 3.342 1.182 5.405 3.997 5.405 7.403 0 3.453-2.079 6.252-5.486 7.403-.943.327-1.39.358-4.99.42l-3.966.063zm10.716-9.597c-.48-1.26-1.712-2.442-2.895-2.784-.544-.155-1.471-.249-2.575-.249h-1.727v9.519l2.047-.062c1.823-.047 2.111-.094 2.847-.467 2.159-1.089 3.166-3.702 2.303-5.957zm9.612-5.801c-.688 1.866-5.294 15.055-5.294 15.195 0 .125.48.172 1.791.14l1.775-.046.56-1.602.544-1.587h6.62l1.088 3.267h1.808c.991 0 1.807-.032 1.807-.063 0-.077-5.182-14.947-5.358-15.382-.096-.233-.384-.265-2.655-.265-2.495 0-2.559 0-2.687.343zm3.95 5.988l1.12 3.313h-2.4c-1.855 0-2.383-.047-2.319-.203l1.168-3.406c.608-1.773 1.135-3.173 1.2-3.11.063.062.607 1.602 1.23 3.406z" fill="#fff"/><path d="M46.06 32.864V17.157h3.358v15.709H46.06zm24.31 0h3.517v-6.532h6.877v6.532h3.519V17.157h-3.519v6.377h-6.876v-6.378h-3.519v15.71zm17.271 0V17.157H91v15.709h-3.359z" fill="#fff"/></svg>
